packages/opendesign/src/icons/svgs/fill/backtop.svg

<?xml version="1.0" encoding="UTF-8"?>
<svg width="24px" height="24px" viewBox="0 0 24 24" version="1.1" xmlns="http://www.w3.org/2000/svg" xmlns:xlink="http://www.w3.org/1999/xlink">
    <title>backtop</title>
    <g id="backtop" stroke="none" stroke-width="1" fill="none" fill-rule="evenodd">
        <path d="M12,5.9 C12.0094677,5.9 12.0188843,5.90021929 12.0282448,5.90065307 C12.044013,5.90107063 12.0604442,5.90237326 12.0768096,5.90434915 C12.0924115,5.90686514 12.1077895,5.90945137 12.1229575,5.91261031 C12.1431604,5.9157969 12.1632067,5.92089652 12.1829974,5.92704429 C12.189634,5.93053903 12.1963897,5.93283306 12.2030902,5.93524294 C12.2528935,5.95109852 12.3009086,5.9753154 12.3456488,6.00630939 L12.4287462,6.07573593 L17.4287462,11.0757359 C17.6630608,11.3100505 17.6630608,11.6899495 17.4287462,11.9242641 C17.2204666,12.1325437 16.8971573,12.1556859 16.6633156,11.9936906 L16.5802181,11.9242641 L12.599,7.944 L12.6,20.5 L12.592147,20.5973231 C12.5456468,20.8824104 12.2982338,21.1 12,21.1 C11.6686292,21.1 11.4,20.8313708 11.4,20.5 L11.4,20.5 L11.399,7.952 L7.42874624,11.9242641 C7.22046662,12.1325437 6.89715734,12.1556859 6.66331557,11.9936906 L6.5802181,11.9242641 C6.37193848,11.7159844 6.3487963,11.3926752 6.51079156,11.1588334 L6.5802181,11.0757359 L11.5444307,6.10952643 C11.6225031,6.0185234 11.7273718,5.9511817 11.8468035,5.91973481 C11.8508581,5.91988621 11.8545277,5.91893057 11.8582042,5.91801021 C11.9034006,5.90587023 11.9510147,5.9 12,5.9 L11.939212,5.90353926 C11.9499123,5.90237511 11.9606379,5.90149814 11.9713763,5.90090837 Z M17,2.9 C17.3313708,2.9 17.6,3.16862915 17.6,3.5 C17.6,3.79823376 17.3824104,4.04564675 17.0973231,4.09214701 L17,4.1 L7,4.1 C6.66862915,4.1 6.4,3.83137085 6.4,3.5 C6.4,3.20176624 6.61758961,2.95435325 6.90267688,2.90785299 L7,2.9 L17,2.9 Z" id="path1" fill="#000000" fill-rule="nonzero"></path>
    </g>
</svg>

<!-- Generated by IcoMoon.io -->
<svg version="1.1" xmlns="http://www.w3.org/2000/svg" width="24" height="24" viewBox="0 0 24 24">
<title>backtop</title>
<path d="M12 5.9c0.009 0 0.019 0 0.028 0.001 0.016 0 0.032 0.002 0.049 0.004s0.031 0.005 0.046 0.008c0.020 0.003 0.040 0.008 0.060 0.014 0.007 0.003 0.013 0.006 0.020 0.008 0.050 0.016 0.098 0.040 0.143 0.071l0.083 0.069 5 5c0.234 0.234 0.234 0.614 0 0.849-0.208 0.208-0.532 0.231-0.765 0.069l-0.083-0.069-3.981-3.98 0.001 12.556-0.008 0.097c-0.046 0.285-0.294 0.503-0.592 0.503-0.331 0-0.6-0.269-0.6-0.6v0l-0.001-12.548-3.97 3.972c-0.208 0.208-0.532 0.231-0.765 0.069l-0.083-0.069c-0.208-0.208-0.231-0.532-0.069-0.765l0.069-0.083 4.964-4.966c0.078-0.091 0.183-0.158 0.302-0.19 0.004 0 0.008-0.001 0.011-0.002 0.045-0.012 0.093-0.018 0.142-0.018l-0.061 0.004c0.011-0.001 0.021-0.002 0.032-0.003zM17 2.9c0.331 0 0.6 0.269 0.6 0.6 0 0.298-0.218 0.546-0.503 0.592l-0.097 0.008h-10c-0.331 0-0.6-0.269-0.6-0.6 0-0.298 0.218-0.546 0.503-0.592l0.097-0.008h10z"></path>
</svg>
